X:853
T:Sodger Lad
R:Jig
B:The Athole Collection
M:6/8
L:1/8
K:G
g|BAG GDE|ABA ABd|e/f/gG GDE|GAG B2G|cAc BGB|ABA ABd|
e/f/gG GDE|GAG G2:|
|:f|gag gdB|Aaa a2b|def gdB|gag gdB|cac BgB|aAA ABd|e/f/gG GDE|GAG G2:|

